T: Jer O'Connell's
M: 2/4
L: 1/8
K: Dmaj
AD F>G | A>^G AB | =c/B/A GE | EF GA/B/ |AD FG | A>^G AB | =c/B/A GE | ED D :|Ad d>e | fd ed | cA AB | cd ed/c/ |Ad de | fg/f/ ed | c/B/A GE | ED D :|
